!!!!SEGMENT: 068-1-Sam-002.krn
!!!COM: Chopin, Fryderyk
!!!OTL: Mazurka No. 6.
!!!OPS: Op. 68
!!!AGN: Mazurka
!!!NIFC-rismID: 
!!!NIFC-shelfmark: PL-Wbfc 1106/n
!!!OMD: Lento.
!!!OMD: [quarter]=116.
!!!system-decoration: {(s1,s2)}
**kern	**kern	**dynam
*part1	*part1	*part1
*	*I"Nº.6.	*
*staff2	*staff1	*
*clefF4	*clefG2	*
*k[]	*k[]	*
*M3/4	*M3/4	*
*MM116	*MM116	*
*>[A,B,B1,B,B2,C,C,D,E]	*>[A,B,B1,B,B2,C,C,D,E]	*>[A,B,B1,B,B2,C,C,D,E]
*>A	*>A	*>A
!	!LO:TX:a:t=P:w źródle '[quarter]=116' po lewej stronie akolady, na wysokości dolnej pięciolinii:problem	!
!	!LO:TX:t=P:nie wyświetla się "Lento." (OMD):problem	!
16r	(>16eKL>\	.
4r	8.a	.
.	16ccJk	.
=1	=1	=1
*ped	*	*
.	8qe	.
!	!	!LO:DY:rj
4AAA	8.eeL)	p
.	16eeJk	.
4c 4E	4cc	.
4B 4E	4dd#Xt>^<	.
*Xped	*	*
.	.	.
.	16qqcc##XLL/	.
.	16qqdd#JJ	.
=2	=2	=2
*ped	*	*
4AA	(>8.eeL	.
.	16eeJk	.
4c 4E	4a	.
4c 4E	4cc)	.
*Xped	*	*
.	.	.
=3	=3	=3
*ped	*	*
4AA	8.bL/	.
.	16bJk	.
4d 4E	4f#X	.
4d 4E	4g#Xt>	.
*Xped	*	*
.	.	.
=4	=4	=4
*ped	*	*
4AA	8a`<L	.
.	16r	<
.	(<16ek	.
4c 4E	8a`<)	.
.	16r	.
.	(<16ek	.
4c 4E	8a`<)	.
.	16r	.
*Xped	*	*
.	(>16ccJk	[
!!LO:LB:g=original
=5	=5	=5
*ped	*	*
4AA	8eeL)	.
.	16rdd	.
.	(>16eeJk	.
4c 4E	4cc)	.
4B 4E	4dd#X^<t>	.
*Xped	*	*
.	.	.
=6	=6	=6
*ped	*	*
4AA	8.eeL	.
.	16eeJk	.
4c 4E	4a/	.
*Xped	*	*
4c 4E	4cc	.
=7	=7	=7
*ped	*	*
4AA	8.bL/	.
.	16bJk	.
4d 4E	4f#X	.
4d 4E	4g#Xt>	.
*Xped	*	*
.	.	.
=8	=8	=8
.	8qa/	.
*ped	*	*
4AA	4aa	.
4c 4E	8.r	.
.	(<16eKL	.
4r	8.a	.
*Xped	*	*
.	.	.
.	16ccJk)	.
=9	=9	=9
*ped	*	*
.	8qe/	.
4AAA	8.eeL	.
.	16eeJk	.
4c 4E	4cc	.
*Xped	*	*
4B 4E	4dd#X^<t>	.
=10	=10	=10
*ped	*	*
4AA	(>8.eeL	.
.	16eeJk	.
4c 4E	4a/	.
4c 4E	4cc)	.
*Xped	*	*
.	.	.
=11	=11	=11
!LO:TX:b:t=P:w źródle brak oznaczenia "ped":problem	!	!
4AA	8.bL/	.
.	16bJk	.
4d 4E	4f#X	.
*Xped	*	*
4d 4E	4g#Xt>	.
!!LO:LB:g=original
=12	=12	=12
*ped	*	*
4AA	8a`<L	.
.	16r	.
.	(<16ek	<
4c 4E	8a`<)	.
.	16r	.
.	(<16ek	.
4c 4E	8a`<)	.
*Xped	*	*
.	16r	.
.	(>16ccJk	[
=13	=13	=13
*ped	*	*
4AA	8ee`>L)	.
.	16rdd	.
.	(>16eeJk	.
4c 4E	4cc)	.
*Xped	*	*
4B 4E	4dd#X^<t>	.
=14	=14	=14
*ped	*	*
4AA	8.eeL	.
.	16eeJk	.
4c 4E	4a/	.
*Xped	*	*
4c 4E	4cc	.
=15	=15	=15
*ped	*	*
4AA	8.bL/	.
.	16bJk	.
4d 4E	4f#X	.
*Xped	*	*
4d 4E	4g#Xt>	.
=16	=16	=16
.	8qa/	.
4c 4A	4aa	.
4r	8.r	.
.	(>16gKL	.
4r	8.cc	.
.	16eeJk)	.
=17!|:	=17!|:	=17!|:
*>B	*>B	*>B
*ped	*	*
4C	8.ggL	.
.	16ggJk	.
4e 4G	4ee	.
*Xped	*	*
.	.	.
4d#X 4G	4ff#X^<t>	.
.	16qqee#XLL/	.
.	16qqff#JJ	.
=18	=18	=18
4C	8.ggL	.
.	16ggJk	.
4e 4G	4ee	.
4d#X 4G	4ff#X^<t>	.
!!LO:LB:g=original
=19	=19	=19
*ped	*	*
4C	8ggL	.
.	16rff	.
.	(>16ggJk	.
4e 4G	4cc)	.
*Xped	*	*
.	.	.
4f 4G	4dd^<	.
=20	=20	=20
.	(>16qqccLL/	.
.	16qqddJJ	.
4C	2.ee)	.
!	!LO:TX:b:Bi:t=rit.	!
(>4e 4G	.	.
4d 4G#X 4E)	.	.
=21	=21	=21
*ped	*	*
!	!LO:TX:a:B:t=a tempo.	!
.	8qe/	.
!	!	!LO:DY:rj
4AAA	8.eeL	p
.	16eeJk	.
4c 4E	4cc	.
*Xped	*	*
4B 4E	4dd#X^<t>	.
=22	=22	=22
*ped	*	*
4AA	(>8.eeL	.
.	16eeJk	.
4c 4E	4a/	.
*Xped	*	*
4c 4E	4cc)	.
=23	=23	=23
*ped	*	*
4AA	8.bL/	.
.	16bJk	.
4d 4E	4f#X	.
*Xped	*	*
4d 4E	4g#Xt>	.
=24	=24	=24
*ped	*	*
4AA	8a`<L	.
.	16r	.
.	(<16ek	<
4c 4E	8a`<)	.
.	16r	.
.	(<16ek	.
4c 4E	8a`<)	.
.	16r	.
*Xped	*	*
.	(>16ccJk	[
=25	=25	=25
*ped	*	*
4AA	8ee`>L)	.
.	16rdd	.
.	(>16eeJk	.
4c 4E	4cc)	.
4B 4E	4dd#X^<t>	.
*Xped	*	*
.	.	.
!!LO:LB:g=original
=26	=26	=26
*ped	*	*
4AA	8.eeL	.
.	16eeJk	.
4c 4E	4a/	.
4c 4E	4cc	.
*Xped	*	*
.	.	.
=27	=27	=27
*ped	*	*
4AA	8.bL/	.
.	16bJk	.
4d 4E	4f#X	.
4d 4E	4g#Xt>	.
*Xped	*	*
.	.	.
=28	=28	=28
!!LO:TX:a:B:t=1ᵃ.
*>B1	*>B1	*>B1
.	8qa/	.
4AA	4aa	.
8c 8E	8.r	.
8r	.	.
.	(>16gKL	.
4r	8.cc	.
.	16eeJk)	.
=29:|!	=29:|!	=29:|!
!!LO:TX:a:B:t=2ᵃ.
*>B2	*>B2	*>B2
.	8qa/	.
4AA	4aa	.
4c 4E	8.r	.
.	(<16eKL	.
4r	8.e	.
.	16eJk)	.
=30!|:	=30!|:	=30!|:
*>C	*>C	*>C
*k[f#c#g#]	*k[f#c#g#]	*
*	*^	*
*ped	*	*	*
!	!LO:TX:b:t=P:w źródle zmiana znaków przykluczowych w tym takcie:problem	!	!
!	!LO:TX:a:B:t=Poco piu mosso.	!	!LO:DY:rj
4E 4AA	8.cc#L	4e 4c#	mf
.	16cc#Jk	.	.
4E 4AA	(>4e	4e 4c#	<
4E 4AA	4a)	4c#	.
=31	=31	=31	=31
4E 4AA	8.cc#L	4e 4c#	.
.	16cc#Jk	.	.
4E 4AA	(>4e	4e 4c#	.
4E 4AA	4a)	4c#	.
*Xped	*	*	*
.	.	.	.
*clefG2	*	*	*
*	*v	*v	*
!!LO:PB:g=original
=32	=32	=32
*^	*	*
!	!	!	!LO:DY:rj
(>8.eL 8.c#	2.A	8.eeL 8.cc#	f
16d#XJk 16B#X	.	16dd#XJk 16b#X	.
4.f# 4.dn	.	4.ff# 4.ddn	.
8e 8c#)	.	8ee 8cc#	.
=33	=33	=33	=33
.	.	(>16qqdd# 16qqb#XLL/	pp
.	.	16qqff#JJ	.
(>8.eL 8.c#	2.A	8.eeL 8.cc#	.
16d#XJk 16B#X	.	16dd#yJk 16b#y	.
4.f# 4.dn	.	4.ff# 4.ddn	.
.	.	.	.
8e 8c#)	.	8ee 8cc#)	.
.	.	.	.
*clefF4	*	*	*
*v	*v	*	*
=34	=34	=34
*	*^	*
*ped	*	*	*
4E 4AA	8.cc#L	4e 4c#	p
.	16cc#Jk	.	.
4E 4AA	4e	4c#	.
4E 4AA	4a	4c#	.
=35	=35	=35	=35
4E 4AA	8.cc#L	4e 4c#	<
.	16cc#Jk	.	.
4E 4AA	4e	4c#	.
*Xped	*	*	*
4E 4AA	4a	4c#	[
*	*v	*v	*
=36	=36	=36
*^	*	*
*ped	*	*	*
(>8.G#L	[<4GG#	(<8.cc#L 8.e	mf
!	!	!LO:TX:b:t=P:w źródle crescendo zaczyna się od 8qb# 8qd#:problem	!
16G#Jk	.	16b#XJk 16d#X)	<
.	.	8qb# 8qd#/	.
2G#)	4GG#]	4.dd#X 4.f#	.
*Xped	*	*	*
.	.	.	[>
.	4C#	.	.
.	.	8cc# 8e	]
=37	=37	=37	=37
*ped	*	*	*
(>8.G#L	[<4GG#	8.cc#L 8.e	pp
.	.	.	<
16G#Jk	.	16b#XJk 16d#X	.
2G#)	4GG#]	4dd#X 4f#	[>
*Xped	*	*	*
.	.	.	.
.	4C#	4cc# 4e	]
*v	*v	*	*
!!LO:LB:g=original
=38:|!	=38:|!	=38:|!
*>D	*>D	*>D
*	*^	*
!	!LO:TX:b:Bi:t=legatis.	!	!
4B 4BB	(>8.ddnL	4f# 4dn	.
.	16ddJk	.	.
4B 4E	4b	4g#X 4d	.
4B 4E	4ee)	4g# 4d	.
=39	=39	=39	=39
*ped	*	*	*
4A/ 4E/ 4AA/	8.cc#L	4e 4c#	.
.	16cc#Jk	.	.
4E 4AA	4e	4c#	.
*Xped	*	*	*
4E 4AA	4a	4c#	.
=40	=40	=40	=40
4F# 4AA/	8.bL	4f# 4d#X	<
.	16bJk	.	.
4G# 4AA/	4b	4fn 4dn	.
.	.	.	[
4G# 4AA/	4b	4e 4d	.
=41	=41	=41	=41
*ped	*	*	*
4A/ 4AA/	8.cc#L	4e 4c#	.
.	16cc#Jk	.	.
4E 4AA	4e	4c#	.
4E 4AA	4a	4c#	.
*Xped	*	*	*
.	.	.	.
=42	=42	=42	=42
4F# 4AA	8.ddL	4a 4d	.
.	.	.	>
.	16ddJk	.	.
4Fn 4AA	4b	4a 4d	.
4E 4AA	4ee	4g#X 4d	]
=43	=43	=43	=43
*ped	*	*	*
!	!LO:TX:b:Bi:t=poco\ a\ poco\ riten.:dur=5q:ext=s:problem:text with extention lines	!	!
4E 4AA	(>8.cc#L	4e 4c#	.
.	16cc#Jk	.	.
4E 4AA	4e	4c#	.
4E 4AA	4a)	4e 4c#	.
*Xped	*	*	*
.	.	.	.
=44	=44	=44	=44
4F# 4AA/	8.bL	4f# 4d#X	.
.	16bJk	.	.
4G#X 4AA/	4b	4fn 4dn	.
4G# 4AA/	4b	4e 4d	.
!!LO:LB:g=original
=45	=45	=45	=45
4A/ 4AA/	8.cc#L	4e 4c#	.
.	16cc#Jk	.	.
4E 4AA	4e	4c#	.
4E 4AA	4a	4c#	.
*	*v	*v	*
=46||	=46||	=46||
*>E	*>E	*>E
*k[]	*k[]	*
*ped	*	*
!	!LO:TX:a:B:t=tempo 1º.	!
!LO:TX:b:t=P:znak pedalizacji przed nutą:problem	!	!
.	8qe	.
4AAA	8.eeL)	.
.	16eeJk	.
4c 4E	4cc	.
*Xped	*	*
4B 4E	4dd#Xt>^<	.
=47	=47	=47
*ped	*	*
4AA	(>8.eeL	.
.	16eeJk	.
4c 4E	4a/	.
*Xped	*	*
4c 4E	4cc)	.
=48	=48	=48
*ped	*	*
4AA	8.bL/	.
.	16bJk	.
4d 4E	4f#X	.
4d 4E	4g#Xt>	.
*Xped	*	*
.	.	.
=49	=49	=49
*ped	*	*
4AA	8a`<L	.
.	16r	<
.	(<16ek	.
4c 4E	8a`<)	.
.	16r	.
.	(<16ek	.
4c 4E	8a`<)	.
.	16r	.
*Xped	*	*
.	(>16ccJk	.
.	.	[
=50	=50	=50
*ped	*	*
4AA	8ee`>L)	.
.	16rdd	.
.	(>16eeJk	.
4c 4E	4cc)	.
*Xped	*	*
4B 4E	4dd#X^<t>	.
=51	=51	=51
*ped	*	*
4AA	8.eeL	.
.	16eeJk	.
4c 4E	4a/	.
*Xped	*	*
4c 4E	4cc	.
!!LO:LB:g=original
=52	=52	=52
*ped	*	*
4AA	8.bL/	.
.	16bJk	.
4d 4E	4f#X	.
4d 4E	4g#Xt>	.
*Xped	*	*
.	.	.
=53	=53	=53
.	8qa/	.
4c 4A	4aa	.
4r	8.r	.
.	(>16gKL\	.
4r	8.cc	.
.	16eeJk)	.
=54	=54	=54
*ped	*	*
4C	8.ggL	.
.	16ggJk	.
4e 4G	4ee	.
*Xped	*	*
.	.	.
4d#X 4G	4ff#X^<t>	.
=55	=55	=55
*ped	*	*
4C	8.ggL	.
.	16ggJk	.
4e 4G	4ee	.
*Xped	*	*
.	.	.
4d#X 4G	4ff#X^<t>	.
=56	=56	=56
*ped	*	*
4C	8ggL	.
.	16rff	.
.	(>16ggJk	.
4e 4G	4cc)	.
*Xped	*	*
.	.	.
4f 4G	4dd	.
=57	=57	=57
.	(>16qqccLL/	.
.	16qqddJJ	.
4C	2.ee)	.
!	!LO:TX:b:Bi:t=rit.	!
(>4e 4G	.	.
4d 4G#X 4E)	.	.
=58	=58	=58
*ped	*	*
!	!LO:TX:a:B:t=a tempo.	!
.	8qe/	.
!	!	!LO:DY:rj
4AAA	8.eeL	p
.	16eeJk	.
4c 4E	4cc	.
*Xped	*	*
4B 4E	4dd#X^<t>	.
!!LO:LB:g=original
=59	=59	=59
*ped	*	*
4AA	(>8.eeL	.
.	16eeJk	.
4c 4E	4a/	.
*Xped	*	*
4c 4E	4cc)	.
=60	=60	=60
*ped	*	*
4AA	8.bL/	.
.	16bJk	.
4d 4E	4f#X	.
*Xped	*	*
4d 4E	4g#Xt>	.
=61	=61	=61
*ped	*	*
4AA	8a`<L	.
.	16r	.
.	(<16ek	.
4c 4E	8a`<)	.
.	16r	.
.	(<16ek	.
4c 4E	8a`<)	.
.	16r	.
*Xped	*	*
.	(>16ccJk	.
=62	=62	=62
*ped	*	*
4AA	8ee`>L)	.
.	16rdd	.
.	(>16eeJk	.
4c 4E	4cc)	.
4B 4E	4dd#X^<t>	.
*Xped	*	*
.	.	.
=63	=63	=63
*ped	*	*
4AA	8.eeL	.
.	16eeJk	.
4c 4E	4a/	.
*Xped	*	*
4c 4E	4cc	.
=64	=64	=64
*ped	*	*
4AA	8.bL/	.
.	16bJk	.
4d 4E	4f#X	.
4d 4E	4g#Xt>	.
*Xped	*	*
.	.	.
=65	=65	=65
.	8qa/	.
4AA	4aa	.
4c 4E	4r	.
4r	4r	.
==	==	==
*-	*-	*-
!!title: @{OTL}; @{OPS} @{ONM} publisher: @{PPR}
!!!RDF**kern: > = above
!!!RDF**kern: < = below
!!!RDF**kern: N = linked
!!!RDF**dynam: > = "dim." fontstyle="bold-italic"
!!!RDF**dynam: < = "cres." fontstyle="bold-italic"
!!!ENC: Emilia Ziętek
!!!END: 2020-02-28
!!!EED: Antoni Szymański
!!!EST: revision finished 2020-03-14
